packages/ui-kit/src/icons/svg/merchant-center-small.svg

<?xml version="1.0" encoding="UTF-8"?>
<svg width="25px" height="25px" viewBox="0 0 25 25" version="1.1" xmlns="http://www.w3.org/2000/svg" xmlns:xlink="http://www.w3.org/1999/xlink">
    <title>merchant_center_25x25</title>
    <g id="Color-Scheme---Products-/-Solution" stroke="none" stroke-width="1" fill="none" fill-rule="evenodd">
        <g id="Icon-final" transform="translate(-310.000000, -119.000000)" fill-rule="nonzero">
            <g id="merchant_center_25x25" transform="translate(310.000000, 119.000000)">
                <path d="M22.4467898,24.1475136 L2.24678978,24.1475136 L0.546789776,22.4475136 L0.546789776,21.1475136 L9.94678978,21.1475136 L10.6467898,21.8475136 L14.0467898,21.8475136 L14.7467898,21.1475136 L24.1467898,21.1475136 L24.1467898,22.4475136 L22.4467898,24.1475136 Z M2.54678978,23.3475136 L22.1467898,23.3475136 L23.3467898,22.1475136 L23.3467898,21.9475136 L15.0467898,21.9475136 L14.3467898,22.6475136 L10.3467898,22.6475136 L9.64678978,21.9475136 L1.34678978,21.9475136 L1.34678978,22.1475136 L2.54678978,23.3475136 Z" id="Shape" fill="#507787"></path>
                <path d="M21.9467898,20.4475136 L21.1467898,20.4475136 L21.1467898,10.0475136 C21.1467898,9.64751364 20.8467898,9.34751364 20.4467898,9.34751364 L4.24678978,9.34751364 C3.84678978,9.34751364 3.54678978,9.64751364 3.54678978,10.0475136 L3.54678978,20.3475136 L2.74678978,20.3475136 L2.74678978,10.0475136 C2.74678978,9.24751364 3.44678978,8.54751364 4.24678978,8.54751364 L20.4467898,8.54751364 C21.2467898,8.54751364 21.9467898,9.24751364 21.9467898,10.0475136 L21.9467898,20.4475136 Z" id="Path" fill="#507787"></path>
                <path d="M18.9467898,7.84751364 L18.1467898,7.84751364 C18.1467898,7.74751364 18.1467898,7.64751364 18.1467898,7.44751364 C18.0467898,7.44751364 17.9467898,7.44751364 17.8467898,7.44751364 C16.8467898,7.44751364 15.9467898,6.64751364 15.9467898,5.54751364 C15.9467898,4.94751364 16.2467898,4.34751364 16.7467898,3.94751364 C16.5467898,3.64751364 16.2467898,3.44751364 16.0467898,3.24751364 C15.7467898,3.74751364 15.1467898,4.04751364 14.4467898,4.04751364 C13.4467898,4.04751364 12.5467898,3.24751364 12.5467898,2.14751364 C12.5467898,2.04751364 12.5467898,1.94751364 12.5467898,1.84751364 C12.2467898,1.84751364 12.0467898,1.84751364 11.8467898,1.84751364 C11.8467898,1.94751364 11.8467898,2.04751364 11.8467898,2.14751364 C11.8467898,3.14751364 11.0467898,4.04751364 9.94678978,4.04751364 C9.34678978,4.04751364 8.74678978,3.74751364 8.34678978,3.24751364 C8.04678978,3.44751364 7.84678978,3.74751364 7.64678978,3.94751364 C8.14678978,4.24751364 8.44678978,4.84751364 8.44678978,5.54751364 C8.44678978,6.54751364 7.64678978,7.44751364 6.54678978,7.44751364 C6.44678978,7.44751364 6.34678978,7.44751364 6.24678978,7.44751364 C6.24678978,7.54751364 6.24678978,7.74751364 6.24678978,7.84751364 L5.44678978,7.84751364 C5.44678978,7.54751364 5.44678978,7.24751364 5.54678978,6.84751364 C5.54678978,6.74751364 5.64678978,6.64751364 5.74678978,6.54751364 C5.84678978,6.44751364 5.94678978,6.44751364 6.14678978,6.54751364 C6.34678978,6.64751364 6.44678978,6.64751364 6.64678978,6.64751364 C7.24678978,6.64751364 7.74678978,6.14751364 7.74678978,5.54751364 C7.74678978,5.04751364 7.44678978,4.64751364 6.94678978,4.54751364 C6.84678978,4.54751364 6.74678978,4.44751364 6.64678978,4.34751364 C6.64678978,4.24751364 6.64678978,4.04751364 6.74678978,3.94751364 C7.14678978,3.34751364 7.74678978,2.84751364 8.34678978,2.34751364 C8.44678978,2.24751364 8.54678978,2.24751364 8.74678978,2.24751364 C8.84678978,2.24751364 8.94678978,2.34751364 8.94678978,2.54751364 C9.04678978,3.04751364 9.54678978,3.34751364 9.94678978,3.34751364 C10.5467898,3.34751364 11.0467898,2.84751364 11.0467898,2.24751364 C11.0467898,2.04751364 11.0467898,1.94751364 10.9467898,1.74751364 C10.8467898,1.64751364 10.8467898,1.54751364 10.9467898,1.34751364 C11.0467898,1.24751364 11.1467898,1.14751364 11.2467898,1.14751364 C11.9467898,1.04751364 12.4467898,1.04751364 13.1467898,1.14751364 C13.2467898,1.14751364 13.3467898,1.24751364 13.4467898,1.34751364 C13.5467898,1.44751364 13.5467898,1.54751364 13.4467898,1.74751364 C13.3467898,1.94751364 13.3467898,2.04751364 13.3467898,2.24751364 C13.3467898,2.84751364 13.8467898,3.34751364 14.4467898,3.34751364 C14.9467898,3.34751364 15.3467898,3.04751364 15.4467898,2.54751364 C15.4467898,2.44751364 15.5467898,2.34751364 15.6467898,2.24751364 C15.7467898,2.24751364 15.9467898,2.24751364 16.0467898,2.34751364 C16.6467898,2.74751364 17.1467898,3.34751364 17.6467898,3.94751364 C17.7467898,4.04751364 17.7467898,4.14751364 17.7467898,4.34751364 C17.7467898,4.44751364 17.6467898,4.54751364 17.4467898,4.54751364 C16.9467898,4.64751364 16.6467898,5.14751364 16.6467898,5.54751364 C16.6467898,6.14751364 17.1467898,6.64751364 17.7467898,6.64751364 C17.9467898,6.64751364 18.0467898,6.64751364 18.2467898,6.54751364 C18.3467898,6.44751364 18.4467898,6.44751364 18.6467898,6.54751364 C18.7467898,6.64751364 18.8467898,6.74751364 18.8467898,6.84751364 C18.9467898,7.24751364 18.9467898,7.54751364 18.9467898,7.84751364 Z" id="Path" fill="#044E7C"></path>
                <path d="M15.6467898,7.84751364 L14.8467898,7.84751364 C14.8467898,6.44751364 13.7467898,5.24751364 12.2467898,5.24751364 C10.7467898,5.24751364 9.64678978,6.34751364 9.64678978,7.84751364 L8.94678978,7.84751364 C8.94678978,6.04751364 10.4467898,4.54751364 12.2467898,4.54751364 C14.1467898,4.54751364 15.6467898,6.04751364 15.6467898,7.84751364 Z" id="Path" fill="#044E7C"></path>
                <path d="M20.2467898,20.2475136 L4.44678978,20.2475136 L4.44678978,10.2475136 L20.2467898,10.2475136 L20.2467898,20.2475136 Z M5.14678978,19.5475136 L19.3467898,19.5475136 L19.3467898,10.9475136 L5.14678978,10.9475136 L5.14678978,19.5475136 Z" id="Shape" fill="#507787"></path>
            </g>
        </g>
    </g>
</svg>

<svg viewBox="0 0 25 25" width="25px" height="25px" xmlns="http://www.w3.org/2000/svg">
  <g fill-rule="nonzero" fill="none">
    <path d="M22.447 24.148h-20.2l-1.7-1.7v-1.3h9.4l.7.7h3.4l.7-.7h9.4v1.3l-1.7 1.7zm-19.9-.8h19.6l1.2-1.2v-.2h-8.3l-.7.7h-4l-.7-.7h-8.3v.2l1.2 1.2zM21.947 20.448h-.8v-10.4c0-.4-.3-.7-.7-.7h-16.2c-.4 0-.7.3-.7.7v10.3h-.8v-10.3c0-.8.7-1.5 1.5-1.5h16.2c.8 0 1.5.7 1.5 1.5v10.4z" fill="#507787"/>
    <path d="M18.947 7.848h-.8v-.4h-.3c-1 0-1.9-.8-1.9-1.9 0-.6.3-1.2.8-1.6-.2-.3-.5-.5-.7-.7-.3.5-.9.8-1.6.8-1 0-1.9-.8-1.9-1.9v-.3h-.7v.3c0 1-.8 1.9-1.9 1.9-.6 0-1.2-.3-1.6-.8-.3.2-.5.5-.7.7.5.3.8.9.8 1.6 0 1-.8 1.9-1.9 1.9h-.3v.4h-.8c0-.3 0-.6.1-1 0-.1.1-.2.2-.3.1-.1.2-.1.4 0s.3.1.5.1c.6 0 1.1-.5 1.1-1.1 0-.5-.3-.9-.8-1-.1 0-.2-.1-.3-.2 0-.1 0-.3.1-.4.4-.6 1-1.1 1.6-1.6.1-.1.2-.1.4-.1.1 0 .2.1.2.3.1.5.6.8 1 .8.6 0 1.1-.5 1.1-1.1 0-.2 0-.3-.1-.5-.1-.1-.1-.2 0-.4.1-.1.2-.2.3-.2.7-.1 1.2-.1 1.9 0 .1 0 .2.1.3.2.1.1.1.2 0 .4s-.1.3-.1.5c0 .6.5 1.1 1.1 1.1.5 0 .9-.3 1-.8 0-.1.1-.2.2-.3.1 0 .3 0 .4.1.6.4 1.1 1 1.6 1.6.1.1.1.2.1.4 0 .1-.1.2-.3.2-.5.1-.8.6-.8 1 0 .6.5 1.1 1.1 1.1.2 0 .3 0 .5-.1.1-.1.2-.1.4 0 .1.1.2.2.2.3.1.4.1.7.1 1z" fill="#044E7C"/>
    <path d="M15.647 7.848h-.8c0-1.4-1.1-2.6-2.6-2.6s-2.6 1.1-2.6 2.6h-.7c0-1.8 1.5-3.3 3.3-3.3 1.9 0 3.4 1.5 3.4 3.3z" fill="#044E7C"/>
    <path d="M20.247 20.248h-15.8v-10h15.8v10zm-15.1-.7h14.2v-8.6h-14.2v8.6z" fill="#507787"/>
  </g>
</svg>
